X:183
M:C|
L:1/8
K:F
f|cF F/F/F cFcF|AF F/F/F c2 Ac|BG G/G/G BGBG|BG G/G/G c2 A:|
|:F(ff)g fdcA|F(ff)g fdcA|G(gg)a gfed|G(gg)a gfed|

